actions/32/media-optical-audio-new.svg

<?xml version="1.0" encoding="UTF-8" standalone="no"?>
<svg
   xmlns:dc="http://purl.org/dc/elements/1.1/"
   xmlns:cc="http://creativecommons.org/ns#"
   xmlns:rdf="http://www.w3.org/1999/02/22-rdf-syntax-ns#"
   xmlns:svg="http://www.w3.org/2000/svg"
   xmlns="http://www.w3.org/2000/svg"
   xmlns:sodipodi="http://sodipodi.sourceforge.net/DTD/sodipodi-0.dtd"
   xmlns:inkscape="http://www.inkscape.org/namespaces/inkscape"
   height="16"
   width="16"
   version="1.1"
   id="svg6"
   sodipodi:docname="media-optical-audio-new.svg"
   inkscape:version="0.92.2pre0 (973e216, 2017-07-25)">
  <metadata
     id="metadata12">
    <rdf:RDF>
      <cc:Work
         rdf:about="">
        <dc:format>image/svg+xml</dc:format>
        <dc:type
           rdf:resource="http://purl.org/dc/dcmitype/StillImage" />
      </cc:Work>
    </rdf:RDF>
  </metadata>
  <defs
     id="defs10" />
  <sodipodi:namedview
     pagecolor="#ffffff"
     bordercolor="#666666"
     borderopacity="1"
     objecttolerance="10"
     gridtolerance="10"
     guidetolerance="10"
     inkscape:pageopacity="0"
     inkscape:pageshadow="2"
     inkscape:window-width="1920"
     inkscape:window-height="1001"
     id="namedview8"
     showgrid="false"
     inkscape:zoom="14.75"
     inkscape:cx="8"
     inkscape:cy="8"
     inkscape:window-x="0"
     inkscape:window-y="0"
     inkscape:window-maximized="1"
     inkscape:current-layer="svg6" />
  <g
     color="#000"
     transform="translate(-572 -32)"
     id="g4"
     style="fill:#808080;fill-opacity:1">
    <path
       d="M585.514 32.041a2.748 2.748 0 0 0-.41.016l-7.21 1.125c-.813.082-.901.462-.894.935v9.52c-.413-.272-.856-.465-1.445-.465-.76 0-1.213.29-1.487.674-.274.383-.365.865-.365 1.238 0 .45.155.93.488 1.295.334.366.846.623 1.582.623.832 0 1.416-.232 1.747-.686.26-.357.405-.835.457-1.423.007-.072.01-.146.015-.221.004-.06.003-.102.004-.172H578v-7.703c.022-.62.584-.711.584-.711l5.854-.914c.561-.172.562.523.562.523v6.942c-.413-.272-.856-.465-1.445-.465-.76 0-1.213.29-1.487.674-.274.383-.365.865-.365 1.238 0 .45.155.93.488 1.295.334.366.846.623 1.582.623.832 0 1.416-.232 1.747-.686.26-.357.405-.835.457-1.423.007-.072.01-.146.015-.221.004-.06.003-.102.004-.172H586V32.932c.012-.686-.14-.867-.486-.891z"
       fill="gray"
       fill-rule="evenodd"
       font-family="sans-serif"
       font-weight="400"
       overflow="visible"
       style="line-height:normal;font-variant-ligatures:normal;font-variant-position:normal;font-variant-caps:normal;font-variant-numeric:normal;font-variant-alternates:normal;font-feature-settings:normal;text-indent:0;text-align:start;text-decoration-line:none;text-decoration-style:solid;text-decoration-color:#000;text-transform:none;text-orientation:mixed;shape-padding:0;isolation:auto;mix-blend-mode:normal;fill:#808080;fill-opacity:1"
       white-space="normal"
       id="path2" />
  </g>
</svg>

<svg xmlns="http://www.w3.org/2000/svg" width="16" height="16" version="1.1">
 <g style="fill:#808080" transform="translate(-572,-32)">
  <path style="fill:#808080;fill-rule:evenodd" d="M 585.51,32.041 A 2.748,2.748 0 0 0 585.1,32.057 L 577.89,33.182 C 577.08,33.264 576.99,33.644 577,34.117 V 43.637 C 576.59,43.365 576.14,43.172 575.55,43.172 574.79,43.172 574.34,43.462 574.07,43.846 573.79,44.229 573.7,44.711 573.7,45.084 573.7,45.534 573.86,46.014 574.19,46.379 574.52,46.745 575.04,47.002 575.77,47.002 576.61,47.002 577.19,46.77 577.52,46.316 577.78,45.959 577.92,45.481 577.98,44.893 577.98,44.821 577.99,44.747 577.99,44.672 578,44.612 578,44.57 578,44.5 V 44.5 36.797 C 578.02,36.177 578.58,36.086 578.58,36.086 L 584.44,35.172 C 585,35 585,35.695 585,35.695 V 42.637 C 584.59,42.365 584.14,42.172 583.55,42.172 582.79,42.172 582.34,42.462 582.07,42.846 581.79,43.229 581.7,43.711 581.7,44.084 581.7,44.534 581.86,45.014 582.19,45.379 582.52,45.745 583.04,46.002 583.77,46.002 584.61,46.002 585.19,45.77 585.52,45.316 585.78,44.959 585.92,44.481 585.98,43.893 585.98,43.821 585.99,43.747 585.99,43.672 586,43.612 586,43.57 586,43.5 V 43.5 32.932 C 586.01,32.246 585.86,32.065 585.51,32.041 Z"/>
 </g>
</svg>
